dist/icons/experience/courses.svg

<svg width="25" height="24" viewBox="0 0 25 24" fill="none" xmlns="http://www.w3.org/2000/svg">
<path d="M2.92969 14.954L1.06509 14.5426C0.518604 15.6452 0 16.8837 0 18.3105C0 19.7101 0.497607 20.9336 1.06509 22.0785L7.37305 20.687V23.4312L9.57031 22.3325L11.7676 23.4312V20.6884L18.0263 22.0792C18.5686 20.9853 19.0918 19.7435 19.0918 18.3105C19.0918 18.0636 19.0735 17.8177 19.0428 17.5781H25V0H2.92969V14.954ZM1.90088 20.394C1.71035 19.8902 1.46484 19.0898 1.46484 18.3105C1.46484 17.5312 1.7104 16.7307 1.90088 16.227L7.37305 17.4342V19.1869L1.90088 20.394ZM10.3027 21.061L9.57031 20.6948L8.83789 21.061V17.5781H10.3027V21.061ZM17.1913 20.3931L11.7676 19.1878V17.4332L17.1913 16.2279C17.3817 16.7318 17.627 17.5317 17.627 18.3105C17.627 19.0895 17.3817 19.8895 17.1913 20.3931ZM23.5352 1.46484V16.1133H18.7038C18.4637 15.3788 18.2701 15.0319 18.0263 14.5418L10.9548 16.1133H8.18535L4.39453 15.277V1.46484H23.5352Z" fill="black"/>
<path d="M8.83789 2.92969H19.0918V4.39453H8.83789V2.92969Z" fill="black"/>
<path d="M5.85938 8.78906H22.0703V10.2539H5.85938V8.78906Z" fill="black"/>
<path d="M8.83789 11.7188H19.0918V13.1836H8.83789V11.7188Z" fill="black"/>
<path d="M10.3027 5.85938H11.7676V7.32422H10.3027V5.85938Z" fill="black"/>
<path d="M13.2324 5.85938H14.6973V7.32422H13.2324V5.85938Z" fill="black"/>
<path d="M16.1621 5.85938H17.627V7.32422H16.1621V5.85938Z" fill="black"/>
</svg>

<svg width="25" height="24" fill="none" xmlns="http://www.w3.org/2000/svg"><path d="M2.93 14.954l-1.865-.411C.52 15.645 0 16.883 0 18.31c0 1.4.498 2.623 1.065 3.767l6.308-1.391v2.744l2.197-1.099 2.198 1.1v-2.744l6.258 1.391c.543-1.094 1.066-2.335 1.066-3.768 0-.247-.018-.493-.05-.733H25V0H2.93v14.954zm-1.03 5.44c-.19-.504-.435-1.304-.435-2.083 0-.78.245-1.58.436-2.084l5.472 1.207v1.753l-5.472 1.207zm8.403.667l-.733-.366-.732.366v-3.483h1.465v3.483zm6.888-.668l-5.423-1.205v-1.755l5.423-1.205c.19.504.436 1.304.436 2.082 0 .78-.245 1.58-.436 2.083zm6.344-18.928v14.648h-4.831c-.24-.734-.434-1.081-.678-1.571l-7.071 1.571h-2.77l-3.79-.836V1.465h19.14z" fill="#000"/><path d="M8.838 2.93h10.254v1.465H8.838V2.93zM5.86 8.79h16.21v1.464H5.86V8.789zM8.838 11.719h10.254v1.465H8.838v-1.465zM10.303 5.86h1.465v1.464h-1.465V5.86zM13.232 5.86h1.465v1.464h-1.465V5.86zM16.162 5.86h1.465v1.464h-1.465V5.86z" fill="#000"/></svg>
